!!!COM: Palestrina, Giovanni Perluigi da
!!!OPR: Missa Salve regina
!!!OMD: Credo
!!!OTL: First Section
**kern	**kern	**kern	**kern	**kern
*Ibass	*Itenor	*Icalto	*Icalto	*Icant
!Bassus	!Tenor	!Altus 2	!Altus 1	!Cantus
*clefF4	*clefGv2	*clefG2	*clefG2	*clefG2
*k[b-]	*k[b-]	*k[b-]	*k[b-]	*k[b-]
*G:dor	*G:dor	*G:dor	*G:dor	*G:dor
*M4/2	*M4/2	*M4/2	*M4/2	*M4/2
=1	=1	=1	=1	=1
0r	1g	0r	1b-	1dd
.	2f#	.	2a	[1dd
.	2g	.	2b-	.
=2	=2	=2	=2	=2
0r	2d	1r	2b-	2dd]
.	2f	.	2a	2dd
.	1e-	2r	1g	2cc
.	.	2g	.	2cc
=3	=3	=3	=3	=3
0r	2d	2f	2a	0dd
.	2G	2g	2b-	.
.	2B-	2d	2b-	.
.	2d	2f	2a	.
=4	=4	=4	=4	=4
0r	1c	1e	1cc	1g
.	2G	2d	2b-	1dd
.	2G	2g	2b-	.
=5	=5	=5	=5	=5
0r	2A	2e	2a	2cc
.	2F	2f	2a	2cc
.	4G	2.d	2g	1b-
.	4A	.	.	.
.	4B-	.	[2f	.
.	4c	4e	.	.
=6	=6	=6	=6	=6
0r	4d	1f	4f]	1a
.	4e	.	4g	.
.	1f	.	4a	.
.	.	.	4b-	.
.	.	1c	1cc	1g
.	2e	.	.	.
=7	=7	=7	=7	=7
0r	1d	2.f	2r	2.a
.	.	.	2.f	.
.	.	4g	.	4b-
.	2.c	4a	.	[1cc
.	.	4g	8e	.
.	.	.	8d	.
.	.	[2g	2e	.
.	4B-	.	.	.
=8	=8	=8	=8	=8
1r	1A	2g]	1c	1cc]
.	.	2f#	.	.
2r	2G	2g	2d	2b
[2G	[2B	[2d	[2g	[2dd
=9	=9	=9	=9	=9
2G]	2B]	2d]	2g]	2dd]
2G	2B	2d	2g	2dd
2C	2.c	2.g	2e	2ee
2C	.	.	2g	2ee
.	4c	4g	.	.
=10	=10	=10	=10	=10
1F	2c	4f	1a	1ff
.	.	4e	.	.
.	2.d	4d	.	.
.	.	4c	.	.
[1G	.	4B-	[1b-	[1dd
.	4c	4A	.	.
.	4B-	2G	.	.
.	4A	.	.	.
=11	=11	=11	=11	=11
2G]	2.B-	2g	2b-]	2dd]
2G	.	2g	2b-	2dd
.	4c	.	.	.
2D	2d	2f	1a	2dd
[2d	2d	[2a	.	[2ff
=12	=12	=12	=12	=12
2d]	1A	2a]	0r	2ff]
2c	.	2a	.	2ee
2A	1r	2a	.	2cc
2B-	.	2f	.	2dd
=13	=13	=13	=13	=13
2.G	2r	2g	2r	2.b-
.	1g	2g	1b-	.
4A	.	.	.	4cc
4B-	.	1d	.	4dd
4c	.	.	.	4ee
[2d	2f	.	2a	[2ff
=14	=14	=14	=14	=14
2d]	2d	1r	2f	4ff]
.	.	.	.	4ee
2B-	2d	.	2g	1dd
1A	2e	2r	2.a	.
.	2e	[2a	.	2cc#
.	.	.	4a	.
=15	=15	=15	=15	=15
2r	1d	2a]	1f	2dd
1B-	.	2d	.	1dd
.	2r	[1f	2.b-	.
2B-	2d	.	.	2dd
.	.	.	4b-	.
=16	=16	=16	=16	=16
1B-	2d	1f]	2b-	1dd
.	2.d	.	2B-	.
1BB-	.	1d	[1f	1b-
.	4c	.	.	.
.	[2B-	.	.	.
=17	=17	=17	=17	=17
2.F	2B-]	2.c	2f]	2.cc
.	2A	.	2f	.
4F	.	4c	.	4cc
1BB-	1B-	1f	2d	1dd
.	.	.	[2b-	.
=18	=18	=18	=18	=18
1E-	1G	1g	2b-]	1b-
.	.	.	1g	.
1C	1c	1g	.	1ee-
.	.	.	[2cc	.
=19	=19	=19	=19	=19
0G	0d	0g	2cc]	0dd
.	.	.	4b-	.
.	.	.	4a	.
.	.	.	1b-	.
=20	=20	=20	=20	=20
0D	2d	0f#	2a	1dd
.	2.d	.	2.a	.
.	.	.	.	2r
.	4d	.	4a	.
.	2d	.	2a	[2dd
=21	=21	=21	=21	=21
0r	2.g	2r	1b	4dd]
.	.	.	.	4dd
.	.	2.g	.	2dd
.	4f	.	.	.
.	4e	.	1cc	2.gg
.	4d	4g	.	.
.	[2c	2g	.	.
.	.	.	.	4ff
=22	=22	=22	=22	=22
0r	2c]	2cc	0r	2ee
.	2d	2b-	.	2dd
.	2f	2a	.	2cc
.	2g	2g	.	2b-
=23	=23	=23	=23	=23
1r	2.d	2g	2r	2a
.	.	2f#	1d	2a
.	4d	.	.	.
2r	1G	1g	.	[1b
[2G	.	.	2d	.
=24	=24	=24	=24	=24
2G]	1r	2r	2.g	1b]
2G	.	1g	.	.
.	.	.	4f	.
2.c	2r	.	4e	1r
.	.	.	4d	.
.	[2c	2g	2e	.
4B-	.	.	.	.
=25	=25	=25	=25	=25
4A	2c]	2.cc	2e	0r
4G	.	.	.	.
1F	2c	.	2.a	.
.	.	4b-	.	.
.	2f	2a	.	.
.	.	.	4f	.
2G	2e	2g	[2b-	.
=26	=26	=26	=26	=26
2B-	2d	2f	2b-]	1r
2c	1c	2e	2a	.
[1G	.	1d	[1g	2r
.	4B	.	.	[2dd
.	4A	.	.	.
=27	=27	=27	=27	=27
1G]	1B	2r	1g]	2dd]
.	.	1g	.	2dd
[1C	1c	.	[1e	2.gg
.	.	2g	.	.
.	.	.	.	4ff
=28	=28	=28	=28	=28
2C]	2r	2.cc	2e]	4ee
.	.	.	.	4dd
2C	1c	.	2e	1cc
.	.	4b-	.	.
2.F	.	4a	2f	.
.	.	4g	.	.
.	2c	[2f	2c	2a
4E	.	.	.	.
=29	=29	=29	=29	=29
4D	2.f	2f]	2d	2a
4C	.	.	.	.
1BB-	.	2d	2f	1b-
.	4e	.	.	.
.	2d	1f	2g	.
2F	2c	.	[2a	2a
=30	=30	=30	=30	=30
1G	1B-	1.d	4a]	0dd
.	.	.	4g	.
.	.	.	1g	.
2.D	2.A	.	.	.
.	.	2d	2f#	.
4D	4A	.	.	.
=31	=31	=31	=31	=31
2G	1G	2B-	2g	2r
2G	.	2b-	2g	2dd
2D	1r	2a	2f	2dd
2F	.	2a	2f	2cc
=32	=32	=32	=32	=32
1G	1r	1g	1d	1b-
1D	2r	2f	2d	2a
.	2d	2f	2a	2ff
=33	=33	=33	=33	=33
0r	2A	2cc	2a	2ff
.	2c	2cc	2g	2ee
.	2d	2.a	2f	2dd
.	2d	.	2f	2dd
.	.	4a	.	.
=34	=34	=34	=34	=34
2r	1A	2a	2e	2cc#
1D	.	1a	1f	1dd
.	1r	.	.	.
2D	.	[2b-	2f	2dd
=35	=35	=35	=35	=35
1E-	1r	4b-]	1g	2b-
.	.	4a	.	.
.	.	1g	.	2cc
1D	2r	.	[1a	[1dd
.	[2d	4f	.	.
.	.	4e	.	.
=36	=36	=36	=36	=36
1D	2d]	4f	2a]	1dd]
.	.	4g	.	.
.	2d	4a	2f	.
.	.	4b-	.	.
1C	1e-	1cc	2g	1r
.	.	.	2a	.
=37	=37	=37	=37	=37
1BB-	1d	1f	1b-	2r
.	.	.	.	2b-
2r	1d	2r	1f	2a
2B-	.	2d	.	2f
=38	=38	=38	=38	=38
2A	2c	2f	1r	2a
2G	2B-	2e	.	1b-
1F	1c	1f	2r	.
.	.	.	[2f	2a
=39	=39	=39	=39	=39
2BB-	2B-	1d	2f]	1b-
1B-	1d	.	2g	.
.	.	2r	1f	1r
2A	2c	[2f	.	.
=40	=40	=40	=40	=40
1B-	1.d	2f]	1r	0r
.	.	2g	.	.
1A	.	2f	1a	.
.	2c#	2e	.	.
=41	=41	=41	=41	=41
1G	1d	1g	1b	1r
2F	[1f	[1a	2cc	2r
[2F	.	.	[2cc	[2ff
=42	=42	=42	=42	=42
2F]	1f]	1a]	2cc]	2ff]
2F	.	.	2a	2cc
2.B-	1r	2r	2f	2.dd
.	.	[2d	2f	.
4A	.	.	.	4cc
=43	=43	=43	=43	=43
2G	0r	2d]	2g	2b-
2D	.	2d	2f	2a
1A	.	2e	1a	1cc
.	.	2e	.	.
=44	=44	=44	=44	=44
1D	2r	2.f	2a	1dd
.	1f	.	2a	.
.	.	4g	.	.
1r	.	4a	2a	2ff
.	.	4b-	.	.
.	2c	2cc	[2g	2ee
=45	=45	=45	=45	=45
0r	2.d	1a	2g]	2dd
.	.	.	2f	2dd
.	4c	.	.	.
.	2B-	2r	2g	2dd
.	2A	[2cc	[2a	[2ff
=46	=46	=46	=46	=46
0r	1c	4cc]	2a]	4ff]
.	.	4b-	.	4ee
.	.	2cc	2.g	2.ee
.	1d	2a	.	.
.	.	.	4f	4dd
.	.	[2a	4f	[2dd
.	.	.	8e	.
.	.	.	8d	.
=47	=47	=47	=47	=47
1r	1A	2a]	1e	2dd]
.	.	2e	.	2cc#
2r	2r	2.f	2d	1dd
[2B-	2d	.	[2b-	.
.	.	4e	.	.
=48	=48	=48	=48	=48
2B-]	1f	2d	2b-]	0r
2F	.	1c	2a	.
2.G	2e	.	1g	.
.	2d	2B	.	.
4F	.	.	.	.
=49	=49	=49	=49	=49
2E	2e	2c	2g	0r
1D	2.f	2d	2b-	.
.	.	2.f	2a	.
.	4e	.	.	.
2F	4d	.	2a	.
.	4c	4e	.	.
=50	=50	=50	=50	=50
1G	4B	4d	0g	1r
.	2c	4c	.	.
.	.	2d	.	.
.	4B	.	.	.
1C	1c	2e	.	2r
.	.	2e	.	2g
=51	=51	=51	=51	=51
0r	2r	2f	1r	2a
.	2G	4g	.	2b-
.	.	4f	.	.
.	2A	4e	2r	2cc
.	.	4f	.	.
.	2B-	2d	2d	[2g
=52	=52	=52	=52	=52
0r	1c	4c	2.e	2g]
.	.	4d	.	.
.	.	4e	.	2a
.	.	4c	4f	.
.	4G	1d	2g	[1b-
.	4A	.	.	.
.	4B-	.	4d	.
.	4c	.	4e	.
=53	=53	=53	=53	=53
0r	4d	1r	2f	2b-]
.	4e	.	.	.
.	1f	.	2f	2a
.	.	2r	1c	1g
.	2e	2g	.	.
=54	=54	=54	=54	=54
2r	1d	2a	2r	1f
2D	.	2b-	2f	.
2E	2r	1cc	2g	1r
2F	2f	.	2a	.
=55	=55	=55	=55	=55
1G	2d	1g	1b-	0r
.	2d	.	.	.
1D	1d	2a	1f	.
.	.	[2b-	.	.
=56	=56	=56	=56	=56
2E	2.c	2b-]	2g	2r
1F	.	4a	1a	2cc
.	4B-	4g	.	.
.	4A	2f	.	2dd
.	4F	.	.	.
2E	[2c	2g	2g	2ee
=57	=57	=57	=57	=57
1D	2c]	2a	2.f	1ff
.	2B	2d	.	.
.	.	.	4g	.
1C	1c	1e	4a	2ee
.	.	.	4b-	.
.	.	.	[2cc	2ee
=58	=58	=58	=58	=58
1r	1G	1g	2cc]	1dd
.	.	.	2b	.
1F	1A	2c	2cc	1cc
.	.	[2f	2a	.
=59	=59	=59	=59	=59
1D	2r	2f]	1a	1ff
.	1f	1d	.	.
[1BB-	.	.	1b-	1dd
.	[2d	2B-	.	.
=60	=60	=60	=60	=60
1BB-]	2d]	1f	2r	1b-
.	1B-	.	2b-	.
1E-	.	2.g	1b-	2g
.	2G	.	.	[2gg
.	.	4f	.	.
=61	=61	=61	=61	=61
0C	2.g	4e-	2.cc	4gg]
.	.	4d	.	4ff
.	.	4c	.	4ee-
.	4f	4d	8b-	4dd
.	.	.	8a	.
.	4e-	1e-	2g	4cc
.	4d	.	.	4b-
.	[2c	.	[2a	4a
.	.	.	.	4g
=62	=62	=62	=62	=62
0D	2c]	[0d	2a]	2f#
.	2B-	.	1g	2g
.	1A	.	.	1a
.	.	.	2f#	.
=63	=63	=63	=63	=63
1G	1G	1d]	1g	1b
1r	1r	1r	1r	1r
=64	=64	=64	=64	=64
1G	1B-	1g	1d	1g
1G	1B-	1b-	1g	1dd
=65	=65	=65	=65	=65
1E-	1G	1b-	1g	1ee-
1BB-	1B-	1b-	1f	1dd
=66	=66	=66	=66	=66
1F	1c	1a	1f	1cc
[1BB-	2B-	2b-	2f	2dd
.	2B-	2f	2b-	2dd
=67	=67	=67	=67	=67
1BB-]	1B-	1f	1b-	1dd
1r	2F	2f	2cc	2a
.	2F	2f	2a	2cc
=68	=68	=68	=68	=68
0r	0G	1d	0g	0b-
.	.	1d	.	.
=69	=69	=69	=69	=69
1.D	2d	2r	2f#	1a
.	1d	1f#	1a	.
.	.	.	.	1r
2D	2d	2f#	2a	.
=70	=70	=70	=70	=70
1G	1d	1g	1b	0r
1F	1f	1a	1cc	.
=71	=71	=71	=71	=71
1C	2.e-	2.g	2.cc	0r
.	4d	4f	4b-	.
1C	2c	2e-	2a	.
.	2B-	2e-	2g	.
=72	=72	=72	=72	=72
1D	1A	1d	1f#	1r
1G	2r	1d	1g	1b
.	[2G	.	.	.
=73	=73	=73	=73	=73
1C	2G]	1e-	1g	1cc
.	1c	.	.	.
1G	.	[1d	[1g	1dd
.	4B-	.	.	.
.	4A	.	.	.
=74	=74	=74	=74	=74
1.G	2B-	1d]	2g]	0dd
.	2G	.	1b-	.
.	[1d	2.B-	.	.
4F	.	.	4a	.
4E-	.	4c	4g	.
=75	=75	=75	=75	=75
1D	2d]	1d	2f#	0dd
.	4c	.	1g	.
.	4B-	.	.	.
1D	2A	1d	.	.
.	2A	.	2f#	.
=76	=76	=76	=76	=76
0G	0G	0d	0g	0b
*-	*-	*-	*-	*-
!!!CDT: 1525/^1526/-1594/2/2
!!!OCY: Italia
!!!AGN: Mass (Paraphrase)
!!!AST: renaissance, vocal
!!!ASW: Antiphon
!!!PWK: Masses, Book 11
!!!RNB: Cadence finals: D
!!!YOR: Le Opere Complete, v. 28, p. 185
!!!YOO: Rome, Italy: Fratelli Scalera
!!!END: 1992//
!!!EED: John Miller
!!!YEC: Copyright 2000, John Miller
!!!YEN: United States of America
!!!YEM: Rights to all derivative electronic formats reserved.
!!!YEM: Refer to licensing agreement for further details.
!!!YEM: This file must be accompanied by the licensing agreement.
!!!YEM: A copy of the licensing agreement may be found at http://www.music-cog.ohio-state.edu/HumdrumDatabases/Palestrina/license.txt
!!!EMD: converted to Humdrum by Bret Aarden
